X: 40728
T: Toss The Feathers
R: reel
M: 4/4
K: Edorian
|E2BE dEBE|EBBA FAFA|BE E2 BABd|egfe dBAF|
E2BE dEBE|EBBA FAFA|BE (3E^DE BABd|egfe dBA2|
Beed efge|fede fe e2|febe febe|fede fee2|
Beed e2 de|fede fa a2|b2bf a2af|egfe dBAF|

